X: 41423
T: Twirl
R: reel
M: 4/4
K: Dminor
A2AB AGFD|~A2AB AGFD|EDEF G2 D2|EDEF G2 C2|
A2AB AGFD|~A2AB AGFD|AdAG FDEF|D2 EF D4:|
A2d2 d3 e|fgfe defd|G2 c2 c3 d|efed c3A|
A2d2 d3 e|fgfe defd|AdAG FDEF|D2 EF D4:|

